X: 31
T:Indian Ate the Woodchuck
S:https://tunearch.org//wiki/Indian_Ate_the_Woodchuck_(1)
M:C|
L:1/8
R:Reel
K:D
dB|AGFE DEFA|BeeB e2dB|AGFE DEFA|BABc d2dB|
AGFE DEFA|BeeB e2dB|AGFE DEFA|BABc d2:|
a2|:fafa b2ae|feee e2a2|fafa b2ae|feBe   d2 d2|
fafa b2ae|feee e2e2| b4 bc'ba|1feBc d2d2:|2 feBc d2||

